packages/internal_wiki/src/data/svgs/DE293.svg

<?xml version="1.0" encoding="UTF-8" standalone="no"?>
<!-- Created with Inkscape (http://www.inkscape.org/) -->
<svg
   xmlns:svg="http://www.w3.org/2000/svg"
   xmlns="http://www.w3.org/2000/svg"
   version="1.0"
   width="2580"
   height="520"
   id="svg2">
  <defs
     id="defs4" />
  <g
     id="layer1">
    <path
       d="M 282.59707,513.23121 L 2299.6972,513.23121 L 1599.1272,27.570367 L 981.47487,27.570367 L 282.59707,513.23121 z "
       style="fill:#999;fill-opacity:1;fill-rule:evenodd;stroke:none;stroke-width:1px;stroke-linecap:butt;stroke-linejoin:miter;stroke-opacity:1"
       id="path6421" />
    <path
       d="M 898.44151,342.09175 L 807.36141,342.09175 L 944.37761,193.19554 L 1004.5698,193.19554 L 898.44151,342.09175 z "
       style="fill:white;fill-opacity:1;fill-rule:evenodd;stroke:black;stroke-width:2;stroke-linecap:butt;stroke-linejoin:miter;stroke-miterlimit:4;stroke-dasharray:none;stroke-opacity:1"
       id="path9991" />
    <path
       d="M 924.90196,6.7989029 L 10.65625,447.1875 L 284.16579,447.77219 L 284.125,447.1875 L 284.1114,512.32156 L 980.20515,28.963979 L 980.39273,7.3039781 L 924.90196,6.7989029 z "
       style="fill:white;fill-opacity:1;fill-rule:evenodd;stroke:black;stroke-width:3;stroke-linecap:butt;stroke-linejoin:miter;stroke-miterlimit:4;stroke-dasharray:none;stroke-opacity:1"
       id="path6404" />
    <path
       d="M 281.75098,449.77378 L 979.78267,8.1100888 L 979.78267,8.1100888"
       style="fill:none;fill-opacity:1;fill-rule:evenodd;stroke:black;stroke-width:3;stroke-linecap:butt;stroke-linejoin:miter;stroke-miterlimit:4;stroke-dasharray:none;stroke-opacity:1"
       id="path6409" />
    <path
       d="M 1656.31,6.0361685 L 2570.5557,446.42477 L 2297.0462,447.00946 L 2297.087,446.42477 L 2297.1006,511.55883 L 1601.0068,28.201245 L 1600.8193,6.5412437 L 1656.31,6.0361685 z "
       style="fill:white;fill-opacity:1;fill-rule:evenodd;stroke:black;stroke-width:3;stroke-linecap:butt;stroke-linejoin:miter;stroke-miterlimit:4;stroke-dasharray:none;stroke-opacity:1"
       id="path6417" />
    <path
       d="M 2299.461,449.01105 L 1601.4293,7.3473544 L 1601.4293,7.3473544"
       style="fill:none;fill-opacity:1;fill-rule:evenodd;stroke:black;stroke-width:3;stroke-linecap:butt;stroke-linejoin:miter;stroke-miterlimit:4;stroke-dasharray:none;stroke-opacity:1"
       id="path6419" />
    <path
       d="M 1328.1859,341.79975 L 1420.058,341.79975 L 1379.666,192.11154 L 1320.2659,192.11154 L 1328.1859,341.79975 z "
       style="fill:white;fill-opacity:1;fill-rule:evenodd;stroke:black;stroke-width:2;stroke-linecap:butt;stroke-linejoin:miter;stroke-miterlimit:4;stroke-dasharray:none;stroke-opacity:1"
       id="path9967" />
    <path
       d="M 1502.4261,341.79975 L 1593.5063,341.79975 L 1506.3861,192.90354 L 1444.61,192.90354 L 1502.4261,341.79975 z "
       style="fill:white;fill-opacity:1;fill-rule:evenodd;stroke:black;stroke-width:2;stroke-linecap:butt;stroke-linejoin:miter;stroke-miterlimit:4;stroke-dasharray:none;stroke-opacity:1"
       id="path9971" />
    <path
       d="M 1675.0824,341.79975 L 1766.1625,341.79975 L 1629.1463,192.90354 L 1568.9542,192.90354 L 1675.0824,341.79975 z "
       style="fill:white;fill-opacity:1;fill-rule:evenodd;stroke:black;stroke-width:2;stroke-linecap:butt;stroke-linejoin:miter;stroke-miterlimit:4;stroke-dasharray:none;stroke-opacity:1"
       id="path9973" />
    <path
       d="M 1849.1722,341.50775 L 1940.2523,341.50775 L 1756.5081,193.40354 L 1695.524,193.40354 L 1849.1722,341.50775 z "
       style="fill:white;fill-opacity:1;fill-rule:evenodd;stroke:black;stroke-width:2;stroke-linecap:butt;stroke-linejoin:miter;stroke-miterlimit:4;stroke-dasharray:none;stroke-opacity:1"
       id="path9975" />
    <path
       d="M 1246.2919,342.09175 L 1154.4198,342.09175 L 1194.8118,192.40354 L 1254.2119,192.40354 L 1246.2919,342.09175 z "
       style="fill:white;fill-opacity:1;fill-rule:evenodd;stroke:black;stroke-width:2;stroke-linecap:butt;stroke-linejoin:miter;stroke-miterlimit:4;stroke-dasharray:none;stroke-opacity:1"
       id="path9987" />
    <path
       d="M 1072.0517,342.09175 L 980.97141,342.09175 L 1068.0917,193.19554 L 1129.8678,193.19554 L 1072.0517,342.09175 z "
       style="fill:white;fill-opacity:1;fill-rule:evenodd;stroke:black;stroke-width:2;stroke-linecap:butt;stroke-linejoin:miter;stroke-miterlimit:4;stroke-dasharray:none;stroke-opacity:1"
       id="path9989" />
    <path
       d="M 724.35173,342.09175 L 633.27163,342.09175 L 817.01585,193.98754 L 877.99995,193.98754 L 724.35173,342.09175 z "
       style="fill:white;fill-opacity:1;fill-rule:evenodd;stroke:black;stroke-width:2;stroke-linecap:butt;stroke-linejoin:miter;stroke-miterlimit:4;stroke-dasharray:none;stroke-opacity:1"
       id="path9993" />
  </g>
</svg>

<svg xmlns="http://www.w3.org/2000/svg" version="1.0" viewBox="0 0 2580 520" role="img" aria-labelledby="title">
  <title id="title">Verkehrszeichen 293 - Fußgängerüberweg</title>
  <path d="M282.597 513.231h2017.1l-700.57-485.66H981.475z" style="fill:#999;fill-opacity:1;fill-rule:evenodd;stroke:none;stroke-width:1px;stroke-linecap:butt;stroke-linejoin:miter;stroke-opacity:1"/>
  <path d="M898.442 342.092h-91.08l137.016-148.896h60.192z" style="fill:#fff;fill-opacity:1;fill-rule:evenodd;stroke:#000;stroke-width:2;stroke-linecap:butt;stroke-linejoin:miter;stroke-miterlimit:4;stroke-dasharray:none;stroke-opacity:1"/>
  <path d="M924.902 6.799 10.656 447.188l273.51.584-.041-.584-.014 65.134L980.205 28.964l.188-21.66z" style="fill:#fff;fill-opacity:1;fill-rule:evenodd;stroke:#000;stroke-width:3;stroke-linecap:butt;stroke-linejoin:miter;stroke-miterlimit:4;stroke-dasharray:none;stroke-opacity:1"/>
  <path d="M281.751 449.774 979.783 8.11" style="fill:none;fill-opacity:1;fill-rule:evenodd;stroke:#000;stroke-width:3;stroke-linecap:butt;stroke-linejoin:miter;stroke-miterlimit:4;stroke-dasharray:none;stroke-opacity:1"/>
  <path d="m1656.31 6.036 914.246 440.389-273.51.584.041-.584.014 65.134L1601.007 28.2l-.188-21.66z" style="fill:#fff;fill-opacity:1;fill-rule:evenodd;stroke:#000;stroke-width:3;stroke-linecap:butt;stroke-linejoin:miter;stroke-miterlimit:4;stroke-dasharray:none;stroke-opacity:1"/>
  <path d="M2299.461 449.011 1601.429 7.347" style="fill:none;fill-opacity:1;fill-rule:evenodd;stroke:#000;stroke-width:3;stroke-linecap:butt;stroke-linejoin:miter;stroke-miterlimit:4;stroke-dasharray:none;stroke-opacity:1"/>
  <path d="M1328.186 341.8h91.872l-40.392-149.688h-59.4zM1502.426 341.8h91.08l-87.12-148.896h-61.776zM1675.082 341.8h91.08l-137.016-148.896h-60.192zM1849.172 341.508h91.08l-183.744-148.104h-60.984zM1246.292 342.092h-91.872l40.392-149.688h59.4zM1072.052 342.092h-91.08l87.12-148.896h61.776zM724.352 342.092h-91.08l183.744-148.104H878z" style="fill:#fff;fill-opacity:1;fill-rule:evenodd;stroke:#000;stroke-width:2;stroke-linecap:butt;stroke-linejoin:miter;stroke-miterlimit:4;stroke-dasharray:none;stroke-opacity:1"/>
</svg>
